img/icon-mark.svg

<svg fill="none" height="66" viewBox="0 0 66 66" width="66" xmlns="http://www.w3.org/2000/svg"><path d="m33 66c18.2254 0 33-14.7746 33-33s-14.7746-33-33-33-33 14.7746-33 33 14.7746 33 33 33z" fill="#63a63e"/><path d="m49.641 21.066c-.3912-.3887-1.0229-.3887-1.414 0l-18.439 18.438c-.3912.3888-1.0229.3888-1.414 0l-8.14-8.139c-.3912-.3887-1.0229-.3887-1.414 0l-3.535 3.535c-.3888.3912-.3888 1.0228 0 1.414l13.089 13.09c.3911.3888 1.0228.3888 1.414 0l3.536-3.536 1.414-1.414 18.438-18.438c.3887-.3912.3887-1.0228 0-1.414z" fill="#fff"/></svg>

<svg width="66" height="66" viewBox="0 0 66 66" fill="none" xmlns="http://www.w3.org/2000/svg">
<path d="M33 66C51.2254 66 66 51.2254 66 33C66 14.7746 51.2254 0 33 0C14.7746 0 0 14.7746 0 33C0 51.2254 14.7746 66 33 66Z" fill="#63A63E"/>
<path d="M49.641 21.066C49.2498 20.6773 48.6181 20.6773 48.227 21.066L29.788 39.504C29.3968 39.8928 28.7651 39.8928 28.374 39.504L20.234 31.365C19.8428 30.9763 19.2111 30.9763 18.82 31.365L15.285 34.9C14.8962 35.2912 14.8962 35.9228 15.285 36.314L28.374 49.404C28.7651 49.7928 29.3968 49.7928 29.788 49.404L33.324 45.868L34.738 44.454L53.176 26.016C53.5647 25.6248 53.5647 24.9932 53.176 24.602L49.641 21.066Z" fill="white"/>
</svg>
